cellular/assets/icons/svg/phone2.svg

<svg xmlns="http://www.w3.org/2000/svg" width="32" height="32" viewBox="0 0 32 32"><path d="M29.603 11.899l-7.695-.01c-.219 0-.395.114-.395.254L21.505 14v.001c-.002.14.178.253.397.253l7.694.009c.221.001.398-.114.398-.254L30 12.152c0-.138-.178-.252-.397-.253zm-19.115 2.092l.003-1.858c0-.14-.178-.254-.397-.254L2.4 11.871c-.221 0-.4.114-.4.253v1.861-.004c0 .139.177.254.396.254l7.697.009c.219.001.395-.113.395-.253zm17.348-5.632C26.315 7.565 21.21 7.06 15.97 7.066c-5.241-.005-10.345.499-11.867 1.293-1.647.858-1.579 3.088-1.579 3.088l7.433.008c.019-.708.021-2.056 6.013-2.133 5.991.077 5.994 1.426 6.013 2.133l7.433-.008c-.001 0 .067-2.229-1.58-3.088z" fill="#999"/><path d="M17.054 10.067h1.822v4.777h-1.822zm-3.931 0h1.822v4.777h-1.822z" fill="#C8C8C8"/><path fill="#B4B4B4" d="M5.998 20.169v4.765h20.428v-4.765c0-4.46-4.918-6.694-10.428-6.694-5.509 0-10 2.233-10 6.694z"/><path fill="#FFF" d="M19.882 19.215a3.73 3.73 0 1 1-7.459 0 3.73 3.73 0 0 1 3.727-3.731 3.733 3.733 0 0 1 3.732 3.731z"/><path fill="#999" d="M19.583 19.215a.822.822 0 1 1-.824-.822.819.819 0 0 1 .821.822h.003zm-5.217 0a.822.822 0 0 1-.824.822.822.822 0 1 1 0-1.644.827.827 0 0 1 .83.822h-.006zm4.209-2.426a.823.823 0 1 1-1.163 1.164.823.823 0 0 1 1.163-1.164zm-3.686 3.687a.818.818 0 0 1 0 1.164.82.82 0 0 1-1.164 0 .818.818 0 0 1 0-1.164.822.822 0 0 1 1.164 0zm3.686 1.164a.819.819 0 0 1-1.163 0 .822.822 0 1 1 1.163-1.164.817.817 0 0 1 0 1.164zm-3.686-3.685a.828.828 0 0 1-1.164 0 .818.818 0 0 1 0-1.164.822.822 0 0 1 1.164-.002.822.822 0 0 1 0 1.166zm1.259-.523a.822.822 0 0 1 0-1.644c.457 0 .826.37.826.824 0 .451-.368.82-.826.82z"/></svg>

<?xml version="1.0" encoding="utf-8"?>
<!-- Generator: Adobe Illustrator 14.0.0, SVG Export Plug-In . SVG Version: 6.00 Build 43363)  -->
<!DOCTYPE svg PUBLIC "-//W3C//DTD SVG 1.1//EN" "http://www.w3.org/Graphics/SVG/1.1/DTD/svg11.dtd">
<svg version="1.1" id="Layer_1" xmlns="http://www.w3.org/2000/svg" xmlns:xlink="http://www.w3.org/1999/xlink" x="0px" y="0px"
	 width="32px" height="32px" viewBox="0 0 32 32" enable-background="new 0 0 32 32" xml:space="preserve">
<g>
	<g>
		<g>
			<path fill="#999999" d="M29.603,11.899l-7.695-0.01c-0.219,0-0.395,0.114-0.395,0.254L21.505,14v0.001
				c-0.002,0.14,0.178,0.253,0.397,0.253l7.694,0.009c0.221,0.001,0.398-0.114,0.398-0.254L30,12.152
				C30,12.014,29.822,11.9,29.603,11.899z"/>
			<path fill="#999999" d="M10.488,13.991l0.003-1.858c0-0.14-0.178-0.254-0.397-0.254L2.4,11.871c-0.221,0-0.4,0.114-0.4,0.253
				v1.861v-0.004c0,0.139,0.177,0.254,0.396,0.254l7.697,0.009C10.312,14.245,10.488,14.131,10.488,13.991z"/>
		</g>
		<path fill="#999999" d="M27.836,8.359c-1.521-0.794-6.626-1.299-11.866-1.293C10.729,7.061,5.625,7.565,4.103,8.359
			c-1.647,0.858-1.579,3.088-1.579,3.088l7.433,0.008c0.019-0.708,0.021-2.056,6.013-2.133c5.991,0.077,5.994,1.426,6.013,2.133
			l7.433-0.008C29.415,11.447,29.483,9.218,27.836,8.359z"/>
	</g>
	<g>
		<rect x="17.054" y="10.067" fill="#C8C8C8" width="1.822" height="4.777"/>
		<rect x="13.123" y="10.067" fill="#C8C8C8" width="1.822" height="4.777"/>
	</g>
	<path fill="#B4B4B4" d="M5.998,20.169v4.765h20.428v-4.765c0-4.46-4.918-6.694-10.428-6.694
		C10.489,13.475,5.998,15.708,5.998,20.169z"/>
	<path fill="#FFFFFF" d="M19.882,19.215c0,2.061-1.67,3.73-3.731,3.73c-2.056,0-3.728-1.666-3.728-3.73
		c0-2.06,1.671-3.731,3.727-3.731C18.21,15.484,19.882,17.155,19.882,19.215z"/>
	<path fill="#999999" d="M19.583,19.215c0,0.456-0.37,0.822-0.822,0.822c-0.457,0-0.824-0.368-0.824-0.822s0.369-0.822,0.822-0.822
		c0.456-0.002,0.821,0.368,0.821,0.822H19.583z M14.366,19.215c0,0.456-0.369,0.822-0.824,0.822c-0.456,0-0.823-0.368-0.823-0.822
		s0.367-0.822,0.823-0.822c0.455-0.002,0.83,0.368,0.83,0.822H14.366z M18.575,16.789c0.323,0.321,0.323,0.843,0,1.164
		c-0.319,0.321-0.843,0.321-1.163,0c-0.322-0.321-0.322-0.844,0-1.164C17.732,16.466,18.256,16.466,18.575,16.789z M14.889,20.476
		c0.324,0.321,0.324,0.844,0,1.164c-0.32,0.323-0.842,0.323-1.164,0c-0.324-0.32-0.324-0.843,0-1.164
		C14.049,20.154,14.569,20.154,14.889,20.476z M18.575,21.64c-0.319,0.323-0.843,0.323-1.163,0c-0.322-0.32-0.322-0.843,0-1.164
		c0.32-0.321,0.844-0.321,1.163,0C18.9,20.797,18.9,21.319,18.575,21.64z M14.889,17.955c-0.321,0.319-0.842,0.319-1.164,0
		c-0.324-0.323-0.324-0.846,0-1.164c0.321-0.323,0.842-0.323,1.164-0.002C15.211,17.11,15.214,17.634,14.889,17.955z M16.148,17.432
		c-0.454,0-0.822-0.369-0.822-0.82c0-0.456,0.369-0.824,0.822-0.824c0.457,0,0.826,0.37,0.826,0.824
		C16.974,17.063,16.606,17.432,16.148,17.432L16.148,17.432z"/>
</g>
</svg>
